!!!OTL: ACH KOENNT ICH MOLLY KAUFEN FUER GOLD UND EDELSTEIN
!!!ARE: Europa, Mitteleuropa, Deutschland
!!!SCT: B0375
!!!YEM: Copyright 1995, estate of Helmut Schaffrath.
**kern
*ICvox
*Ivox
*M2/4
*k[f#]
*G:
{8dd
=1
8b
8b
8b
8b
=2
8.cc
16b
8a}
{16dd
16cc
=3
8b
8g
16g
16f#
16g
16b
=4
4a
8r}
{8dd
=5
8b
8b
8b
8b
=6
8.cc
16b
8a}
{16dd
16cc
=7
8b
8g
16g
16f#
16g
16b
=8
4a
8r}
{8a
=9
8dd
8dd
8cc#
8ee
=10
4dd
8a}
{8a
=11
8f#
8a
8g
8e
=12
4f#
8r}
{8dd
=13
8b
8b
8b
8b
=14
8.cc
16b
8a}
{8cc
=15
8b
8dd
8a
8dd
=16
4g
8r}
==
!!!AGN: Liebes - Lied, Liebes - Lust
!!!ONB: ESAC (Essen Associative Code) Database: BOEHME
!!!AMT: simple duple
!!!AIN: vox
!!!EED: Helmut Schaffrath
!!!EEV: 1.0
*-
